symbols/web/departure_board/materialsymbolsoutlined/departure_board_wght100gradN25_48px.svg

<svg xmlns="http://www.w3.org/2000/svg" height="48" width="48"><path d="m38.5 17.15.95-.9-3.6-3.65V7.05H34.5v6.05ZM12.8 33.1q.8 0 1.35-.55t.55-1.35q0-.8-.55-1.375t-1.35-.575q-.8 0-1.375.6t-.575 1.35q0 .8.6 1.35t1.35.55Zm14.4 0q.8 0 1.375-.55t.575-1.35q0-.8-.6-1.375t-1.35-.575q-.8 0-1.35.6t-.55 1.35q0 .8.55 1.35t1.35.55Zm-16.35 8.3q-.25 0-.425-.125t-.175-.375v-3.75Q9.1 37 7.85 35.475 6.6 33.95 6.6 32V13.75q0-1.55.975-2.6t3.05-1.675Q12.7 8.85 16 8.65q3.3-.2 7.95-.05-.1.25-.175.55-.075.3-.225.55-8.95-.25-12.4.775Q7.7 11.5 7.45 13.35H23.2q0 .25.075.5t.025.6H7.7v10.6h24.95q.1-.3.525-.325.425-.025.225-.025V32q0 1.95-1.25 3.475Q30.9 37 29.75 37.15v3.75q0 .25-.175.375t-.425.125h.35q-.35 0-.5-.125-.15-.125-.15-.375v-3.55h-17.7v3.55q0 .25-.175.375t-.475.125Zm17.4-15.25H7.7h24.6-4.05Zm6.9-6.05Q32.1 20.1 30 18q-2.1-2.1-2.1-5.15 0-3.05 2.1-5.15 2.1-2.1 5.15-2.1 3.05 0 5.15 2.1 2.1 2.1 2.1 5.15 0 3-2.1 5.125T35.15 20.1Zm-23.4 16.15h16.5q1.7 0 2.875-1.225T32.3 32.15v-6H7.7v6q0 1.6 1.2 2.85t2.85 1.25Zm11.45-22.9H7.45 23.2Z"/></svg>

<svg xmlns="http://www.w3.org/2000/svg" height="48" width="48"><path d="M38.5 17.15 39.45 16.25 35.85 12.6V7.05H34.5V13.1ZM12.8 33.1Q13.6 33.1 14.15 32.55Q14.7 32 14.7 31.2Q14.7 30.4 14.15 29.825Q13.6 29.25 12.8 29.25Q12 29.25 11.425 29.85Q10.85 30.45 10.85 31.2Q10.85 32 11.45 32.55Q12.05 33.1 12.8 33.1ZM27.2 33.1Q28 33.1 28.575 32.55Q29.15 32 29.15 31.2Q29.15 30.4 28.55 29.825Q27.95 29.25 27.2 29.25Q26.4 29.25 25.85 29.85Q25.3 30.45 25.3 31.2Q25.3 32 25.85 32.55Q26.4 33.1 27.2 33.1ZM10.85 41.4Q10.6 41.4 10.425 41.275Q10.25 41.15 10.25 40.9V37.15Q9.1 37 7.85 35.475Q6.6 33.95 6.6 32V13.75Q6.6 12.2 7.575 11.15Q8.55 10.1 10.625 9.475Q12.7 8.85 16 8.65Q19.3 8.45 23.95 8.6Q23.85 8.85 23.775 9.15Q23.7 9.45 23.55 9.7Q14.6 9.45 11.15 10.475Q7.7 11.5 7.45 13.35H23.2Q23.2 13.6 23.275 13.85Q23.35 14.1 23.3 14.45H7.7V25.05H32.65Q32.75 24.75 33.175 24.725Q33.6 24.7 33.4 24.7V32Q33.4 33.95 32.15 35.475Q30.9 37 29.75 37.15V40.9Q29.75 41.15 29.575 41.275Q29.4 41.4 29.15 41.4H29.5Q29.15 41.4 29 41.275Q28.85 41.15 28.85 40.9V37.35H11.15V40.9Q11.15 41.15 10.975 41.275Q10.8 41.4 10.5 41.4ZM28.25 26.15H11.75Q10.1 26.15 8.9 26.15Q7.7 26.15 7.7 26.15H32.3Q32.3 26.15 31.125 26.15Q29.95 26.15 28.25 26.15ZM35.15 20.1Q32.1 20.1 30 18Q27.9 15.9 27.9 12.85Q27.9 9.8 30 7.7Q32.1 5.6 35.15 5.6Q38.2 5.6 40.3 7.7Q42.4 9.8 42.4 12.85Q42.4 15.85 40.3 17.975Q38.2 20.1 35.15 20.1ZM11.75 36.25H28.25Q29.95 36.25 31.125 35.025Q32.3 33.8 32.3 32.15V26.15H7.7V32.15Q7.7 33.75 8.9 35Q10.1 36.25 11.75 36.25ZM23.2 13.35Q23.2 13.35 23.2 13.35Q23.2 13.35 23.2 13.35H7.45Q7.7 13.35 11.125 13.35Q14.55 13.35 23.2 13.35Z"/></svg>
